X: 1
P: Traditional Reel
R: reel
C: from Matt Petrie, chords by T. Traub 11-29-2005
M: 4/4
L: 1/8
K: Dm
"Dm"D2 DC DEFG|Adde fded|"C"cG G/G/G cGdG |cedc "Am"AGEG|"Dm"A/A/A FA DEFG|
"Dm"Adde fded|"C"cG G/G/G cedc|"Am"A/A/A GE "Dm"D2 A^c||"Dm"d2 d^c defg|adde "G"dcA=B|
"C"c2 c=B cdeg|"F"aged "Am"cAGc|"Dm"Add^c defg|adde dcA=B|"C"cdcA GAcG|"Am"AcGE "Dm"D3 |]

